!!!OTL: ICH BIN SO MANCHEN WEG GEGANGEN
!!!ARE: Europa, Mitteleuropa, Deutschland, Hessen, Darmstadt, Dreieichenhain
!!!SCT: E0715
!!!YEM: Copyright 1995, estate of Helmut Schaffrath.
**kern
*ICvox
*Ivox
*M3/4
*k[b-]
*F:
{8c
8f
8g
=1
4.a
8a
8.b-
16a
=2
8a
8g
8g}
{8f
8e
8g
=3
4.b-
8cc
8b-
8g
=4
8g
8a
8a}
{8c
8f
8a
=5
4.cc
8cc
8dd
8cc
=6
4.g}
{8f
8e
8g
=7
4cc
8dd
8cc
8b-
8e
=8
4.f}
==
!!!AGN: Liebes - Lied, Leid, Klage
!!!ONB: ESAC (Essen Associative Code) Database: ERK2
!!!AMT: simple triple
!!!AIN: vox
!!!EED: Helmut Schaffrath
!!!EEV: 1.0
*-
